X:1937
T:Bourrée à Bonal
M:3/8
L:1/8
K:C
c|BAB/c/|d2e/f/|gfe|de/f/g|\
d/f/ec|d2e/f/|gfe|d2:|
|:d/e/|f/e/d/e/c|BAB|c2B|ec2|dg/a/g|\
fd/e/d/c/|BAe|dB/A/B/d/|c4:|
%%newpage


